X: 3163
T: Because He Was A Bonny Lad
R: polka
M: 2/4
K: Dmajor
|AG|:FEDd (3Bcd AF|GBAF E2 EG|FEDd (3Bcd AF|GBAF D2 DG|
FEDd (3Bcd AF|GBAF E2 EG|FABc dcec|dBAG FDDG:|
|:(3FED AD BDAD|(3FED AF E2 EG|(3FED AD BDAD|GBAG FDDG|
(3FED AD BDAD|GBAF E2 EG|FABc dcec|dBAF D2 AG:|

